X:1
T:[ID 2-44b]
T:[ID 2-44b]
T:Bezeichnung standardisiert: Menuett Menuet
T:Urheber unbekannt Erstbeleg: 1767 (Datum in der schriftlichen Quelle) Datum in der hier transkribierten schriftlichen Quelle: 1799
C:Urheber unbekannt
C:Erstbeleg: 1767 (Datum in der schriftlichen Quelle)
C:Datum in der hier transkribierten schriftlichen Quelle: 1799
%%score 1 2
L:1/8
M:3/4
K:D
V:1 treble nm="Violino Primo"
V:2 treble 
V:1
 d2 d2 d2 | a2 a2 a2 | gfgecA | d4 f2 | gfgecA | d4 (3bc'd' | c'2 bab^g | a6 :: a2 fgaf | g2 efge | %10
 fagfed | c2 Bc A2 | d'2 d'2 d'2 | d'4 f'2 | e'2 e'd'e'c' | d'4 f'2 | e'2 e'd'e'c' | d'4 g2 | %18
 f2 edec | d6 :| %20
V:2
 !fermata!F2 F2 F2 | f2 f2 f2 | edecdE | F4 d2 | edecdE | B4 (3efg | a2 dcdB | c6 :: f2 defd | %9
 e2 cdec | dfedcB | A2 DE C2 | f2 f2 f2 | f4 a2 | g2 gfge | f4 a2 | g2 gfge | f4 e2 | d2 GFGE | %19
 F6 :| %20

